X:758
T:Donald Blue
S:Edinburgh sessions
Z:Nigel Gatherer
M:4/4
L:1/8
K:D
dBAF AFAB | dBAF E2 D2 | dBAF AF A2 | B B2 A B2 e2 :|
ABde fafd | fafd ed B2 | ABde fafd  | B B2 A B2 d2 :|
